X: 38862
T: Sunday's Well
R: waltz
M: 3/4
K: Gmajor
GE|:D2 G2 GA|B3A AG|d3B AG|eGg3e|d3e ed|
B3A AG|AG AB AG|E2GA GE|D2 G2GA|B3A AG|d3B AG|
e2g2ge|d2G3A|B3A AG|G3A GF-|1 G3 A GE:|2 G3A Bd||
|:gd ga- ag|e/g/e ga ge|dB de-ed|B3A AG|g3 a ag|
e2g3a|b6|b3a ag|g3 a ag|e2 ga ge|dB de ed|
B3 A AG|G2d2de|d/e/d B2AG|G3A GF|1 G3A Bd:|2 G3 D EG||

